_includes/social-icons/gitlab.svg

<path d="M 15.730469 6.390625 L 15.707031 6.332031 L 13.535156 0.65625 C 13.488281 0.546875 13.410156 0.449219 13.308594 0.386719 C 13.207031 0.320312 13.089844 0.292969 12.96875 0.296875 C 12.847656 0.304688 12.734375 0.347656 12.636719 0.421875 C 12.546875 0.496094 12.476562 0.601562 12.445312 0.714844 L 10.976562 5.214844 L 5.027344 5.214844 L 3.554688 0.714844 C 3.523438 0.601562 3.457031 0.496094 3.363281 0.421875 C 3.269531 0.347656 3.152344 0.304688 3.03125 0.296875 C 2.914062 0.289062 2.792969 0.320312 2.691406 0.386719 C 2.589844 0.449219 2.511719 0.546875 2.46875 0.65625 L 0.289062 6.339844 L 0.265625 6.394531 C -0.046875 7.214844 -0.0820312 8.113281 0.15625 8.953125 C 0.398438 9.796875 0.90625 10.539062 1.605469 11.066406 L 1.613281 11.070312 L 1.632812 11.085938 L 4.953125 13.570312 L 6.589844 14.8125 L 7.589844 15.566406 C 7.707031 15.65625 7.847656 15.703125 7.996094 15.703125 C 8.140625 15.703125 8.285156 15.65625 8.402344 15.566406 L 9.398438 14.8125 L 11.039062 13.570312 L 14.375 11.070312 L 14.386719 11.066406 C 15.085938 10.539062 15.597656 9.796875 15.839844 8.953125 C 16.082031 8.109375 16.042969 7.210938 15.730469 6.390625 Z M 15.730469 6.390625"/>

<path d="m15.73 6.39-.023-.058L13.535.656a.587.587 0 0 0-.566-.36.61.61 0 0 0-.332.126.593.593 0 0 0-.192.293l-1.468 4.5h-5.95L3.555.715A.568.568 0 0 0 3.03.297a.558.558 0 0 0-.34.09.557.557 0 0 0-.222.27L.289 6.34l-.023.055a4.07 4.07 0 0 0-.11 2.558c.242.844.75 1.586 1.45 2.113l.007.004.02.016 3.32 2.484 1.637 1.242 1 .754a.67.67 0 0 0 .812 0l.996-.753 1.641-1.243 3.336-2.5.012-.004a4.049 4.049 0 0 0 1.343-4.675Zm0 0"/>
